X: 2113
T: Athols Father
R: barndance
M: 4/4
K: Dmajor
|:F3G|"D"A2f2e2d2|"A7"c2e2d c2B|"D"Ad FA D2F2|A6GG|
"A7"F2G2E2G2|e3e e2ee|"A7"B2A2F2A2|"D"d4A3G|"D"A2f2e2d2|"A7"c2e2d2cB|
"D"Ad FA D2F2|A6G2|"A7"F2G2E2G2|c2B2GF E2|"D"D4D3D|1 D4:|2 D6||
|:"D"d2|f2df A4|f2df A3(f|"D"a2)a2"G"b2b2|
a6aa|"A7"a2g2e2ge|c3c c2aa|b2a2f2a3/2f/|
"D"d3d d3d|"D"f2df A4|f2df A3(f|"D"a2)aa"G"b2b2|
"D"a6aa|"A7"a2g2e2(ge)|c2e2A2(fe)|"D"df Ad F2A2|"D"d6:|

